T: Tarantella Di Ronciglione
M: 6/8
L: 1/8
K: Emin
|:EFG|B2E c2E|^A2B BAG|.F2F FGA|A2G EFG|
B2E c2E|^A2B BAG|.F2F AGF|E3:|
|:EFG|EFG EFG|.F2F .B2B|BcB AGF|A2F EFG|
EFG EFG|.F2F .B2B|BcB AGF|E3:|
DEF|GFG B^AB|.d2B BAG|.F2F EFE|E2D DEF|
GFG B^AB|.d2B BAG|Fed cBA|A2G DEF|
GFG B^AB|.d2B cBA|^GBd =feB|d2c-c2B|
ABc cBA|GFE BAG|FGA AGF|E3 z3|
